icons/plantation_worker_alt_fill.svg

<svg width="48" height="48" viewBox="0 0 48 48" fill="none" xmlns="http://www.w3.org/2000/svg">
<path d="M24 9.5C24 11.433 22.433 13 20.5 13C18.567 13 17 11.433 17 9.5C17 7.567 18.567 6 20.5 6C22.433 6 24 7.567 24 9.5Z" fill="black"/>
<path fill-rule="evenodd" clip-rule="evenodd" d="M7 16.2676C6.4022 16.6134 6 17.2597 6 18C6 18.7403 6.4022 19.3866 7 19.7324V32.1707C5.83481 32.5825 5 33.6938 5 35V41H7V37H9V41H11V35C11 33.6938 10.1652 32.5825 9 32.1707V20H15V40C15 41.1046 15.8954 42 17 42C18.1046 42 19 41.1046 19 40L19 31H22V40C22 41.1046 22.8954 42 24 42C25.1046 42 26 41.1046 26 40V27.917C28.8377 27.441 31 24.973 31 22C31 18.6863 28.3137 16 25 16H9V13H7V16.2676ZM28 22C28 20.8954 27.1046 20 26 20V24C27.1046 24 28 23.1046 28 22Z" fill="black"/>
<path d="M36.9144 17.5947C36.9694 17.7186 37 17.8557 37 18V40.9999C37 41.5522 36.5522 41.9999 36 41.9999C35.4477 41.9999 35 41.5522 35 40.9999V31.0553C34.9986 31.574 34.9601 31.9349 34.9601 31.9349C34.9601 31.9349 32.032 32.3275 30.8774 31.1847C29.7227 30.0419 30.0399 27.0651 30.0399 27.0651C30.0399 27.0651 32.968 26.6725 34.1226 27.8153C34.8606 28.5456 34.9974 30.0251 35 30.9978V18C35 17.8557 35.0305 17.7185 35.0855 17.5946C34.3716 16.8026 33.5 15.6085 33.5 14.5C33.5 12.6226 36 10.5 36 10.5C36 10.5 38.5 12.6226 38.5 14.5C38.5 15.6086 37.6283 16.8026 36.9144 17.5947Z" fill="black"/>
<path d="M37.8774 34.8153C39.032 33.6725 41.9601 34.0651 41.9601 34.0651C41.9601 34.0651 42.2773 37.0419 41.1226 38.1847C39.968 39.3275 37.0399 38.9349 37.0399 38.9349C37.0399 38.9349 36.7227 35.9581 37.8774 34.8153Z" fill="black"/>
<path d="M41.9601 20.0651C41.9601 20.0651 39.032 19.6725 37.8774 20.8153C36.7227 21.9581 37.0399 24.9349 37.0399 24.9349C37.0399 24.9349 39.968 25.3275 41.1226 24.1847C42.2773 23.0419 41.9601 20.0651 41.9601 20.0651Z" fill="black"/>
</svg>

<svg
  xmlns="http://www.w3.org/2000/svg"
  width="24"
  height="24"
  viewBox="0 0 24 24"
  fill="none"
  stroke="currentColor"
  stroke-width="2"
  stroke-linecap="round"
  stroke-linejoin="round"
>
  <path d="M24 9.5a3.5 3.5 0 1 1-7 0 3.5 3.5 0 0 1 7 0" />
  <path
    fill-rule="evenodd"
    d="M7 16.268a2 2 0 0 0 0 3.464v12.439A3 3 0 0 0 5 35v6h2v-4h2v4h2v-6a3 3 0 0 0-2-2.83V20h6v20a2 2 0 1 0 4 0v-9h3v9a2 2 0 1 0 4 0V27.917A6.002 6.002 0 0 0 25 16H9v-3H7zM28 22a2 2 0 0 0-2-2v4a2 2 0 0 0 2-2"
    clip-rule="evenodd"
  />
  <path d="M36.914 17.595A1 1 0 0 1 37 18v23a1 1 0 0 1-2 0v-9.945c-.001.519-.04.88-.04.88s-2.928.393-4.083-.75c-1.154-1.143-.837-4.12-.837-4.12s2.928-.393 4.083.75c.738.73.874 2.21.877 3.183V18c0-.144.03-.282.086-.405-.714-.792-1.586-1.986-1.586-3.095 0-1.877 2.5-4 2.5-4s2.5 2.123 2.5 4c0 1.109-.872 2.303-1.586 3.095" />
  <path d="M37.877 34.815c1.155-1.142 4.083-.75 4.083-.75s.317 2.977-.837 4.12c-1.155 1.142-4.083.75-4.083.75s-.317-2.977.837-4.12" />
  <path d="M41.96 20.065s-2.928-.393-4.083.75c-1.154 1.143-.837 4.12-.837 4.12s2.928.393 4.083-.75c1.154-1.143.837-4.12.837-4.12" />
</svg>
